apple-safari.svg

<svg fill="currentColor" viewBox="0 0 24 24"><path d="M12 2a10 10 0 0 1 10 10 10 10 0 0 1-10 10A10 10 0 0 1 2 12 10 10 0 0 1 12 2m0 2a8 8 0 0 0-8 8c0 2.09.8 4 2.11 5.41l3.77-7.53 7.53-3.77A7.93 7.93 0 0 0 12 4m0 16a8 8 0 0 0 8-8c0-2.09-.8-4-2.11-5.41l-3.77 7.53-7.53 3.77A7.93 7.93 0 0 0 12 20m0-8-.77-.77L9.7 14.3l3.07-1.53zm0 5.5h1V19h-1zm3.88-1.61.71-.71 1.06 1.06-.71.71zM17.5 12v-1H19v1zM12 6.5h-1V5h1zM8.12 8.11l-.71.71-1.06-1.06.71-.71zM6.5 12v1H5v-1z"/></svg>

<svg  viewBox="0 0 24 24" fill="currentColor"><path  d="M12,2A10,10 0 0,1 22,12A10,10 0 0,1 12,22A10,10 0 0,1 2,12A10,10 0 0,1 12,2M12,4A8,8 0 0,0 4,12C4,14.09 4.8,16 6.11,17.41L9.88,9.88L17.41,6.11C16,4.8 14.09,4 12,4M12,20A8,8 0 0,0 20,12C20,9.91 19.2,8 17.89,6.59L14.12,14.12L6.59,17.89C8,19.2 9.91,20 12,20M12,12L11.23,11.23L9.7,14.3L12.77,12.77L12,12M12,17.5H13V19H12V17.5M15.88,15.89L16.59,15.18L17.65,16.24L16.94,16.95L15.88,15.89M17.5,12V11H19V12H17.5M12,6.5H11V5H12V6.5M8.12,8.11L7.41,8.82L6.35,7.76L7.06,7.05L8.12,8.11M6.5,12V13H5V12H6.5Z"/></svg>
